X: 29392
T: Nice And Easy
R: slip jig
M: 9/8
K: Dmajor
|:(F3 F)AE FED|B,2 E EFD CDE|(F3 F)AE FED|B,2 D DEC DE/F/G|
(F3 F)AE FED|B,2 E EFD CDE|A,A,/A,/A, DEG FED|1 B2 B AFE DEG:|2 B2 B AFE DFA||
|:(B3 B2) c dBG|A2 B/A/ d2 B AFD|E2 F/E/ A,CE GFE|F2 A/F/ A,DF AFD|
(B3 B2) c dBG|A2 B/A/ d2 B AGF|G3 FAF DED|1 A,3 EDC DFA:|2 A,3 EDC DEG||

